icons/facebook.svg

<svg fill="none" height="37" viewBox="0 0 37 37" width="37" xmlns="http://www.w3.org/2000/svg"><path d="m18.2439 3.76758c-3.7964 0-7.4373 1.5081-10.12168 4.19253-2.68443 2.68439-4.19253 6.32529-4.19253 10.12169 0 3.7963 1.5081 7.4372 4.19253 10.1216 2.68438 2.6845 6.32528 4.1926 10.12168 4.1926 3.7963 0 7.4372-1.5081 10.1216-4.1926 2.6845-2.6844 4.1926-6.3253 4.1926-10.1216 0-3.7964-1.5081-7.4373-4.1926-10.12169-2.6844-2.68443-6.3253-4.19253-10.1216-4.19253z" fill="#039be5"/><path d="m20.181 21.8756h3.7043l.5816-3.7631h-4.2867v-2.0567c0-1.5633.5108-2.9495 1.9731-2.9495h2.3498v-3.28397c-.4129-.05575-1.286-.1778-2.9359-.1778-3.4452 0-5.465 1.81937-5.465 5.96447v2.5035h-3.5417v3.7631h3.5417v10.3432c.7014.1054 1.4118.177 2.1411.177.6592 0 1.3026-.0603 1.9377-.1462z" fill="#fff"/></svg>

<svg width="37" height="37" viewBox="0 0 37 37" fill="none" xmlns="http://www.w3.org/2000/svg">
<path d="M18.2439 3.76758C14.4475 3.76758 10.8066 5.27568 8.12222 7.96011C5.43779 10.6445 3.92969 14.2854 3.92969 18.0818C3.92969 21.8781 5.43779 25.519 8.12222 28.2034C10.8066 30.8879 14.4475 32.396 18.2439 32.396C22.0402 32.396 25.6811 30.8879 28.3655 28.2034C31.05 25.519 32.5581 21.8781 32.5581 18.0818C32.5581 14.2854 31.05 10.6445 28.3655 7.96011C25.6811 5.27568 22.0402 3.76758 18.2439 3.76758Z" fill="#039BE5"/>
<path d="M20.181 21.8756H23.8853L24.4669 18.1125H20.1802V16.0558C20.1802 14.4925 20.691 13.1063 22.1533 13.1063H24.5031V9.82233C24.0902 9.76658 23.2171 9.64453 21.5672 9.64453C18.122 9.64453 16.1022 11.4639 16.1022 15.609V18.1125H12.5605V21.8756H16.1022V32.2188C16.8036 32.3242 17.514 32.3958 18.2433 32.3958C18.9025 32.3958 19.5459 32.3355 20.181 32.2496V21.8756Z" fill="white"/>
</svg>
